X: 1
T: Vals fr\aan Infj\"arden
C: Kerstin Bunse 1991
C: andrast\"amma av Boel Oldberg
S: Bruce Sagan's "scanfolk" session archive 2021-5-10
F: https://app.box.com/s/u6iiren0igvsukrhdducy7orq72jayq8/file/809154385155
R: waltz
Z: 2021 John Chambers <jc:trillian.mit.edu>
M: 3/4
L: 1/8
K: Dm
% - - - - - - - - - -
V: 1 staves=2
DF |\
A4 fd | A4 GA | B2 GA Bd | A4 A2 || B2 GA Bd |\
A2 FG AB |1 G2 E2 G2 | A4 :|2 G2 E2 A2 | D4 ||
|: e2 |\
f2 de fa | e4 ^c2 | d2 Bd fd | A4 A2 || B2 GA Bd |\
A2 FG AB |1 G2 E2 G2 | A4 :|2 G2 E2 A2 | D4 |]
% - - - - - - - - - -
V: 2
A,D |\
"Dm"F4 dA | F4 EF | "Gm"G2 D2 G2 | "Dm"F4 F2 || "Gm"G2 EF GB |\
"Dm"F2 DE FD |1 "A"E2 ^C2 E2 | [E4^C4] :|2 "A"E2 ^C2 E2 | "Dm"F4 ||
|: "A"^c2 |\
"Dm"d2 A^c df | "A"^c4 A2 | "Bb"B2 FB dB | "F"F2 C2 F2 || "Gm"G2 EF GB |\
"Dm"F2 DE FD |1 "A"E2 ^C2 E2 | [E4^C4] :|2 "A"E2 ^C2 E2 | "Dm"[D4A,4] |]
% - - - - - - - - - -
